docs/img/icon-widget-filter.svg

<?xml version="1.0" encoding="UTF-8" standalone="no"?>
<svg width="64px" height="64px" viewBox="0 0 64 64" version="1.1" xmlns="http://www.w3.org/2000/svg" xmlns:xlink="http://www.w3.org/1999/xlink" xmlns:sketch="http://www.bohemiancoding.com/sketch/ns">
    <!-- Generator: Sketch 3.3.3 (12072) - http://www.bohemiancoding.com/sketch -->
    <title>icon-widget-filter</title>
    <desc>Created with Sketch.</desc>
    <defs></defs>
    <g id="Page-1" stroke="none" stroke-width="1" fill="none" fill-rule="evenodd" sketch:type="MSPage">
        <g id="Artboard-1" sketch:type="MSArtboardGroup" transform="translate(-100.000000, -122.000000)">
            <g id="icon-widget-filter" sketch:type="MSLayerGroup" transform="translate(100.000000, 122.000000)">
                <g id="Group-Copy" sketch:type="MSShapeGroup">
                    <rect id="Rectangle-1" stroke="#2897C5" stroke-width="2" fill="#2897C5" x="0" y="0" width="64" height="64" rx="8"></rect>
                    <circle id="Oval-1" fill="#147CA7" cx="8" cy="8" r="4"></circle>
                    <circle id="Oval-1-Copy" fill="#147CA7" cx="55" cy="8" r="4"></circle>
                    <circle id="Oval-1-Copy-2" fill="#147CA7" cx="55" cy="56" r="4"></circle>
                    <circle id="Oval-1-Copy-3" fill="#147CA7" cx="8" cy="56" r="4"></circle>
                </g>
                <path d="M28.9712576,39.3755969 C29.0019937,39.4073468 29.0343516,39.438042 29.0683224,39.4675723 C29.7118298,40.0269648 30.6780427,39.9527563 31.2363705,39.3104736 L44.8052699,23.7012404 C45.366424,23.0557064 45.2981578,22.0879471 44.6591058,21.5324277 C44.0155984,20.9730352 43.0493855,21.0472437 42.4910576,21.6895264 L29.9982116,36.0609019 L23.7655866,28.8910869 C23.2114311,28.253604 22.2486006,28.1832865 21.6050932,28.7426789 C20.9660412,29.2981984 20.8969125,30.2649656 21.4513744,30.9028009 L28.4973128,39.0082259 C28.6340561,39.1655311 28.7956839,39.2883014 28.9712576,39.3755969 Z" id="Rectangle-10-Copy" fill="#FFFFFF" sketch:type="MSShapeGroup"></path>
            </g>
        </g>
    </g>
</svg>

<svg width="64" height="64" viewBox="0 0 64 64" xmlns="http://www.w3.org/2000/svg"><title>icon-widget-filter</title><desc>Created with Sketch.</desc><g fill="none" fill-rule="evenodd"><g><g><g transform="translate(-100 -122) translate(100 122)"><rect stroke="#2897C5" stroke-width="2" fill="#2897C5" width="64" height="64" rx="8"/><circle fill="#147CA7" cx="8" cy="8" r="4"/><circle fill="#147CA7" cx="55" cy="8" r="4"/><circle fill="#147CA7" cx="55" cy="56" r="4"/><circle fill="#147CA7" cx="8" cy="56" r="4"/></g><path d="M28.97 39.376c.032.03.064.062.098.092.644.56 1.61.485 2.168-.158l13.57-15.61c.56-.644.492-1.612-.147-2.168-.644-.56-1.61-.485-2.17.158L30 36.06l-6.232-7.17c-.555-.636-1.517-.707-2.16-.147-.64.555-.71 1.522-.155 2.16l7.047 8.105c.137.158.3.28.474.368z" fill="#fff"/></g></g></g></svg>
